!!! OTL: Literature79
!!! Chapter: 5
!!! Section: II
!!! Page: 362
!!! Mode: 
!!! Encoder: ESM
**kern
*staff1
*I"Piano
=1-
*clefG2
*k[b-e-]
*g:
*M3/4
2r
4d/
=2
4.g/
8b-\
4dd\
=3
4ee-\
4cc\
4gg\
=4
4ff\
4cc\
4ee-\
=5
4dd\
4b-\
4dd\
=6
4.dd\
8een\
4ee\
=7
4een\
4ff\
4cc\
=8
4dd\
4b-\
4a/
=9
4g/
4r
4r
=10
4r
4r
4dd\
=11
4.dd\
8a/
4dd\
=12
4dd\
4b-\
4dd\
=13
!!linebreak:original
4.ff\
8cc\
4ff\
=14
4ff\
4dd\
4ff\
=15
4.een\
8cc\
4b-\
=16
4b-\
4a/
4ee-\
=17
4.dd\
8cc\
4a/
=18
4g/
4r
4r
==
*-
